T: Road To Eyries, The
M: 4/4
L: 1/8
K: Dmaj
FE|:DA,DE FDFA|dcBd A2 FG|AdAF GFGB|AFGF EA,CE|
DCDE FDFA|dcBd A2 FG|AdAF GECE|1 (3DED CE D2 FE:|2 (3DED CE D2 FG||
ADFA dFAd|fgfe d2 (3Bcd|eAfA ~g3f|(3efe (3dcB AGFG|
ADFA dcdf|e^def gece|dAFA GECE|1 (3DED CE D2 FG:|2 (3DED CE D2||
